X:1
T:Title
%%score { ( 1 3 ) | ( 2 4 ) }
L:1/8
Q:1/4=102
M:4/4
K:G
V:1 treble nm="Grand Piano"
V:3 treble 
V:2 bass 
V:4 bass 
V:1
 D2 (3DEF [B,G]2 [B,D]2 | B2 (3GFG [FA]4 | [Fc]2 (3[Fc][GB]A d2 G>B | %3
w: J.~Wesley~Hughes * * * * *|||
 A2 (3[^CE-A][EB][EG^c] [Fd]2- [A,Fd]2 | D2 (3DEF [B,G]2 [B,D]>D | [DB]2 (3[B,G]AB [Ec]4 | %6
w: |||
 [Dd]2 (3[=Fd][Fd][Fd] d>c [EG]>[EA] | B2 z2 z4 | d2 (3ddd d2 G2 | B2 (3GFG [FA]4 | %10
w: ||||
 [Fc]2 (3[Fc][Fc][Fc] [Fc]2 [FA]2 | z4 [Fd]4 | D2 (3DEF [B,G]2 [B,D]2 | B2 (3GAB [Ec]4 | %14
w: ||||
 [Dd]2 (3[=Fd][Fd][Fd] d>c [EG]>[EA] | B2 z2 z4 |] %16
w: ||
V:2
 [G,B,]2 (3[D,F,C][D,G,C][D,A,C] [G,,G,]2 [G,,G,]2 | [G,D]2 (3[G,B,D][A,CD][G,B,D] [D,D]4 | %2
 [D,A,]2 (3[D,A,][E,G,][F,A,D][K:treble] [G,B,D]2 [G,B,D]>[G,DG] | %3
 [A,DF]2[K:bass] (3A,,-[A,,D]A,, D,4 | [G,B,]2 (3[D,F,C][D,G,C][D,A,C] [G,,G,]2 z z/ B,/ | %5
 G,2 (3G,-[G,C][G,D] [C,G,]4 | [B,,G,]2 (3[B,,G,][B,,G,][B,,G,] [C,G,]2 [C,C]>[C,C] | %7
 [G,D]>B, D,>D, G,,4 | [G,B,G]2 (3[G,B,G][G,B,G][B,G] [G,B,G]2[K:bass] [B,D]2 | %9
 [G,D]2 (3[G,B,D][A,CD][G,B,D] [D,D]4 | [D,A,]2 (3[D,A,][D,A,][D,A,] [D,A,]2 [D,D]2 | %11
 [G,DG]2 (3[A,^CG][A,DG][A,EG][K:bass] D2 z2 | [G,B,]2 (3[D,F,C][D,G,C][D,A,C] [G,,G,]2 [G,,G,]2 | %13
 [G,D]2 (3[G,B,][G,C][G,D] [C,G,]4 | [B,,G,]2 (3[B,,G,][B,,G,][B,,G,] [C,G,]2 [C,C]>[C,C] | %15
 [G,D]>B, D,>D, G,,4 |] %16
V:3
 x8 | x8 | x8 | z4 D2 z2 | x8 | x8 | z4 E2 z2 | z z/ G/ [DFB]>[CFA] [B,G]4 | x8 | x8 | x8 | %11
 B2 (3AB^c z2 A,2 | x8 | x8 | z4 E2 z2 | z z/ G/ [DFB]>[CFA] [B,G]4 |] %16
V:4
 x8 | x8 | x4[K:treble] x4 | x2[K:bass] x6 | z4 z2 [G,,G,]2 | x8 | x8 | D,2 z2 z4 | x6[K:bass] x2 | %9
 x8 | x8 | z4[K:bass] D,4 | x8 | x8 | x8 | D,2 z2 z4 |] %16

